icon-themes/breeze_svg/cmd/32/fontworkshapetype.fontwork-arch-left-curve.svg

<svg viewBox="0 0 32 32" xmlns="http://www.w3.org/2000/svg"><path d="m18.826172 4c-.61604.26279-1.208151.5594025-1.775391.8828125-.0636.0381-.130369.0724981-.193359.1113281-.0492.0289-.095701.0605438-.144531.0898438-2.90017 1.82862-5.080124 4.4366375-6.121094 7.3046876-.38252 1.1481-.591797 2.357345-.591797 3.609375v.003906c0 5.24486 3.587322 9.763327 8.826172 11.998047l2.08789-3.394531c-3.80315-1.24171-6.561523-4.237785-6.964843-7.796875-.4122-3.63742 2.018469-7.4221277 6.974609-9.3984378z" fill="#4d4d4d"/></svg>

<svg xmlns="http://www.w3.org/2000/svg" viewBox="0 0 32 32">
 <path 
     style="fill:#4d4d4d" 
     d="M 18.826172 4 C 18.210132 4.26279 17.618021 4.5594025 17.050781 4.8828125 C 16.987181 4.9209125 16.920412 4.9553106 16.857422 4.9941406 C 16.808222 5.0230406 16.761721 5.0546844 16.712891 5.0839844 C 13.812721 6.9126044 11.632767 9.5206219 10.591797 12.388672 C 10.209277 13.536772 10 14.746017 10 15.998047 L 10 16.001953 C 10 21.246813 13.587322 25.76528 18.826172 28 L 20.914062 24.605469 C 17.110912 23.363759 14.352539 20.367684 13.949219 16.808594 C 13.537019 13.171174 15.967688 9.3864663 20.923828 7.4101562 L 18.826172 4 z "
     />
</svg>
